packages/icons/svg/Fill/arrowhead-up.svg

<svg width="24" height="24" viewBox="0 0 24 24" fill="none" xmlns="http://www.w3.org/2000/svg">
<g id="Icon/Fill/arrowhead-up">
<path id="Mask" fill-rule="evenodd" clip-rule="evenodd" d="M11.9889 7.29242L6.6269 11.6074C6.1969 11.9534 5.5679 11.8854 5.2209 11.4554C4.8749 11.0244 4.9429 10.3954 5.3729 10.0484L11.3729 5.22042C11.7439 4.92242 12.2739 4.92542 12.6399 5.23242L18.6399 10.2324C19.0649 10.5854 19.1219 11.2154 18.7679 11.6404C18.5699 11.8774 18.2859 12.0004 17.9999 12.0004C17.7739 12.0004 17.5469 11.9234 17.3599 11.7684L11.9889 7.29242ZM11.373 12.2209C11.744 11.9219 12.274 11.9259 12.64 12.2319L18.64 17.2319C19.064 17.5859 19.121 18.2159 18.768 18.6399C18.57 18.8779 18.286 18.9999 17.999 18.9999C17.774 18.9999 17.547 18.9239 17.36 18.7679L11.989 14.2929L6.627 18.6069C6.197 18.9539 5.568 18.8859 5.221 18.4549C4.874 18.0249 4.943 17.3959 5.373 17.0489L11.373 12.2209Z" fill="#000000"/>
</g>
</svg>

<svg fill="none" height="24" viewBox="0 0 24 24" width="24" xmlns="http://www.w3.org/2000/svg"><path clip-rule="evenodd" d="m11.989 7.29242-5.36199 4.31498c-.43.346-1.059.278-1.406-.152-.346-.431-.278-1.06.152-1.407l5.99999-4.82798c.371-.298.901-.295 1.267.012l6 4.99998c.425.353.482.983.128 1.408-.198.237-.482.36-.768.36-.226 0-.453-.077-.64-.232zm-.6159 4.92848c.371-.299.901-.295 1.267.011l6 5c.424.354.481.984.128 1.408-.198.238-.482.36-.769.36-.225 0-.452-.076-.639-.232l-5.371-4.475-5.36199 4.314c-.43.347-1.059.279-1.406-.152-.347-.43-.278-1.059.152-1.406z" fill="#6b7280" fill-rule="evenodd"/></svg>
